X:210
T: Padraig O'Keeffe's
S: "First Collection of Traditional Irish Music" (M.Mulvihill)
Z: B.Black
L: 1/8
M: 12/8
R: slide
K: Edor
B|efe B2A GFE B2A|FED A2D d2F A2B|
efe B2A GFE B2A|FED FAF E3 E2 :|
B|B2e ede f2a afa|baf a2f e2d B2A|
B2e ede f2a afa|baf a2f e3 e2 B/A/|
B2e ede f2a afa|baf a2f e2d B2g|
faf f2e efe B2A|FED AFA E3 E2 :|
